src/auth/components/img/otpLock.svg

<svg height="50" viewBox="0 0 50 50" width="50" xmlns="http://www.w3.org/2000/svg"><g fill="#fff" fill-rule="evenodd" transform="translate(13 4)"><path d="m2.0749 20.101c.0055-5.3745 4.361-9.7295 9.735-9.735 5.3765 0 9.735 4.3585 9.735 9.735s-4.3585 9.735-9.735 9.735-9.735-4.3585-9.735-9.735m-2.075 0c.0055 6.52 5.29 11.8045 11.81 11.81 6.5225 0 11.81-5.2875 11.81-11.81s-5.2875-11.81-11.81-11.81c-1.702 0-3.318.3625-4.78 1.011v-3.836c0-1.835 2.2-3.38 4.805-3.38 1.3435-.0305 2.655.408 3.71 1.24l1.35-1.58c-1.4295-1.157-3.2205-1.775-5.06-1.745-3.795 0-6.885 2.445-6.885 5.455l.0045 5.0315c-2.998 2.142-4.9545 5.648-4.9545 9.6135"/><path d="m11.81 17.8759c1.2315 0 2.23.9985 2.23 2.23 0 .854-.4855 1.587-1.19 1.9615v4.2435h-2.075v-4.2405c-.7075-.374-1.195-1.1085-1.195-1.9645 0-1.2315.9985-2.23 2.23-2.23"/><circle cx="3" cy="40" r="2"/><circle cx="9" cy="40" r="2"/><circle cx="15" cy="40" r="2"/><circle cx="21" cy="40" r="2"/></g></svg>

<?xml version="1.0" encoding="UTF-8"?>
<svg width="50px" height="50px" viewBox="0 0 50 50" version="1.1" xmlns="http://www.w3.org/2000/svg" xmlns:xlink="http://www.w3.org/1999/xlink">
    <!-- Generator: Sketch 48.2 (47327) - http://www.bohemiancoding.com/sketch -->
    <title>lock2</title>
    <desc>Created with Sketch.</desc>
    <defs></defs>
    <g id="Login" stroke="none" stroke-width="1" fill="none" fill-rule="evenodd">
        <g id="lock2" fill="#FFFFFF">
            <g id="Group-4" transform="translate(13.000000, 4.000000)">
                <path d="M2.0749,20.101 C2.0804,14.7265 6.4359,10.3715 11.8099,10.366 C17.1864,10.366 21.5449,14.7245 21.5449,20.101 C21.5449,25.4775 17.1864,29.836 11.8099,29.836 C6.4334,29.836 2.0749,25.4775 2.0749,20.101 M-0.0001,20.101 C0.0054,26.621 5.2899,31.9055 11.8099,31.911 C18.3324,31.911 23.6199,26.6235 23.6199,20.101 C23.6199,13.5785 18.3324,8.291 11.8099,8.291 C10.1079,8.291 8.4919,8.6535 7.0299,9.302 L7.0299,5.466 C7.0299,3.631 9.2299,2.086 11.8349,2.086 C13.1784,2.0555 14.4899,2.494 15.5449,3.326 L16.8949,1.746 C15.4654,0.589 13.6744,-0.029 11.8349,0.001 C8.0399,0.001 4.9499,2.446 4.9499,5.456 L4.9544,10.4875 C1.9564,12.6295 -0.0001,16.1355 -0.0001,20.101" id="Fill-1"></path>
                <path d="M11.81,17.8759 C13.0415,17.8759 14.04,18.8744 14.04,20.1059 C14.04,20.9599 13.5545,21.6929 12.85,22.0674 L12.85,26.3109 L10.775,26.3109 L10.775,22.0704 C10.0675,21.6964 9.58,20.9619 9.58,20.1059 C9.58,18.8744 10.5785,17.8759 11.81,17.8759" id="Fill-4"></path>
                <circle id="Oval" cx="3" cy="40" r="2"></circle>
                <circle id="Oval" cx="9" cy="40" r="2"></circle>
                <circle id="Oval-Copy" cx="15" cy="40" r="2"></circle>
                <circle id="Oval-Copy-2" cx="21" cy="40" r="2"></circle>
            </g>
        </g>
    </g>
</svg>
